StripePaymentSheet/StripePaymentSheet/Resources/StripePaymentSheet.xcassets/PaymentMethods/icon-pm-alipay.imageset/icon-pm-alipay.svg

<svg width="20.00" height="20.00" viewBox="0 0 16 16" fill="none" xmlns="http://www.w3.org/2000/svg">
<g clip-path="url(#clip0_788_23087)">
<path d="M0 2.56365C0 1.14726 1.14625 0 2.56302 0L13.4376 5.33339e-05C14.8532 5.33339e-05 16 1.14732 16 2.56371L15.9998 13.3256V13.4368C15.9998 14.8521 14.8531 16 13.4374 16H2.56302C1.14625 16 0 14.8521 0 13.4368V2.56365Z" fill="white"/>
<path d="M2.56302 0C1.14625 0 0 1.14726 0 2.56365V13.4368C0 14.8521 1.14625 16 2.56302 16H13.4374C14.8531 16 15.9998 14.8521 15.9998 13.4368V13.3256C15.9522 13.3057 11.8416 11.5912 9.75236 10.5865C8.34283 12.3211 6.52475 13.3735 4.63709 13.3735C1.4451 13.3735 0.361142 10.5799 1.87255 8.74089C2.2021 8.34004 2.7627 7.95704 3.63276 7.74264C4.99385 7.40822 7.15996 7.95145 9.19018 8.62142C9.55536 7.94867 9.86258 7.20776 10.0914 6.4189H3.83497V5.78524H7.06105V4.64906H3.15369V4.01487H7.06105V2.39411C7.06105 2.39411 7.06105 2.12109 7.33772 2.12109H8.9148V4.01487H12.7776V4.64906H8.9148V5.78523H12.0678C11.7661 7.0213 11.308 8.15907 10.7329 9.15785C11.6899 9.50399 12.5488 9.83231 13.189 10.0467C15.3243 10.7612 15.9228 10.8485 16 10.8577V2.56371C16 1.14732 14.8532 5.33339e-05 13.4376 5.33339e-05H2.5632L2.56302 0ZM4.31759 8.66889C4.18057 8.67047 4.04294 8.67793 3.90428 8.69159C3.50458 8.73179 2.75412 8.90819 2.34384 9.27107C1.11411 10.3436 1.85013 12.3042 4.33908 12.3042C5.78591 12.3042 7.23154 11.3792 8.36717 9.89806C6.9031 9.18365 5.64204 8.65351 4.31757 8.66887L4.31759 8.66889Z" fill="#00A1E9"/>
</g>
<defs>
<clipPath id="clip0_788_23087">
<rect width="20.00" height="20.00" fill="white"/>
</clipPath>
</defs>
</svg>

<svg width="20" height="20" viewBox="0 0 16 16" fill="none" xmlns="http://www.w3.org/2000/svg" role="presentation" focusable="false">
  <path
    d="M0 2.564A2.562 2.562 0 0 1 2.563 0h10.875A2.562 2.562 0 0 1 16 2.564v10.872A2.563 2.563 0 0 1 13.437 16H2.563A2.563 2.563 0 0 1 0 13.437V2.564Z"
    fill="#fff" />
  <path
    d="M2.563 0A2.562 2.562 0 0 0 0 2.564v10.873A2.563 2.563 0 0 0 2.563 16h10.874A2.563 2.563 0 0 0 16 13.437v-.111c-.048-.02-4.158-1.735-6.248-2.74-1.41 1.735-3.227 2.787-5.115 2.787-3.192 0-4.276-2.793-2.764-4.632.33-.401.89-.784 1.76-.998 1.36-.335 3.527.208 5.557.878.365-.672.673-1.413.901-2.202H3.835v-.634h3.226V4.65H3.154v-.634H7.06v-1.62s0-.274.277-.274h1.577v1.894h3.863v.634H8.915v1.136h3.153a12.897 12.897 0 0 1-1.335 3.373c.957.346 1.816.674 2.456.889 2.135.714 2.734.801 2.811.81V2.565A2.562 2.562 0 0 0 13.438 0H2.563Zm1.755 8.669a4.773 4.773 0 0 0-.414.023c-.4.04-1.15.216-1.56.58-1.23 1.072-.494 3.032 1.995 3.032 1.447 0 2.893-.925 4.028-2.406-1.464-.714-2.725-1.244-4.05-1.23Z"
    fill="#00A1E9" />
</svg>
